assets/img/braze_icons/film-02.svg

<svg fill="none" height="24" viewBox="0 0 24 24" width="24" xmlns="http://www.w3.org/2000/svg"><path clip-rule="evenodd" d="m23 6.7587c0-.80496 0-1.46933-.0442-2.01052-.0459-.5621-.1445-1.0788-.3918-1.56414-.3835-.75265-.9954-1.36457-1.748-1.74806-.4854-.24729-1.0021-.34586-1.5642-.39178-.5412-.044222-1.2055-.044211-2.0105-.0442h-10.4826c-.80496-.000012-1.46933-.000022-2.01052.04419-.5621.04593-1.07881.14449-1.56414.39179-.75265.38349-1.36457.99541-1.74806 1.74806-.2473.48533-.34586 1.00204-.39179 1.56414-.044212.54118-.044202 1.20554-.04419 2.0105v10.48262c-.000013.805-.000022 1.4693.04419 2.0105.04593.5621.14449 1.0788.39178 1.5642.3835.7526.99542 1.3645 1.74807 1.748.48533.2473 1.00204.3459 1.56413.3918.54119.0442 1.20555.0442 2.0105.0442h10.48263c.805 0 1.4693 0 2.0105-.0442.5621-.0459 1.0788-.1445 1.5642-.3918.7526-.3835 1.3645-.9954 1.748-1.748.2473-.4854.3459-1.0021.3918-1.5642.0442-.5412.0442-1.2055.0442-2.0105zm-5 11.2413h2.9982c-.0031.4455-.0118.7954-.0358 1.089-.0358.4384-.1007.6626-.1804.819-.1917.3763-.4977.6823-.874.874-.1564.0797-.3806.1446-.819.1804-.2936.024-.6435.0327-1.089.0358zm-2 0h-3v3h3zm-8 0h3v3h-3zm-2 0h-2.99824c.00313.4455.01181.7954.03579 1.089.03582.4384.10075.6626.18044.819.19174.3763.4977.6823.87403.874.1564.0797.3806.1446.81902.1804.29359.024.64343.0327 1.08896.0358zm14.9624-13.08896c.024.29359.0327.64343.0358 1.08896h-2.9982v-2.99824c.4455.00313.7954.01181 1.089.03579.4384.03582.6626.10075.819.18044.3763.19175.6823.49771.874.87403.0797.1564.1446.3806.1804.81902zm-4.9624-1.91104v3h-3v-3zm-5 0v3h-3v-3zm-5 .00176v2.99824h-2.99824c.00313-.44553.01181-.79537.03579-1.08896.03582-.43842.10075-.66262.18044-.81902.19174-.37632.49771-.68229.87403-.87403.1564-.07969.3806-.14462.81902-.18044.29359-.02398.64343-.03266 1.08896-.03579z" fill="#801ed7" fill-rule="evenodd"/></svg>

<svg width="24" height="24" viewBox="0 0 24 24" fill="none" xmlns="http://www.w3.org/2000/svg">
<path fill-rule="evenodd" clip-rule="evenodd" d="M23 6.7587C23 5.95374 23 5.28937 22.9558 4.74818C22.9099 4.18608 22.8113 3.66938 22.564 3.18404C22.1805 2.43139 21.5686 1.81947 20.816 1.43598C20.3306 1.18869 19.8139 1.09012 19.2518 1.0442C18.7106 0.999978 18.0463 0.999989 17.2413 1L6.7587 1C5.95374 0.999988 5.28937 0.999978 4.74818 1.04419C4.18608 1.09012 3.66937 1.18868 3.18404 1.43598C2.43139 1.81947 1.81947 2.43139 1.43598 3.18404C1.18868 3.66937 1.09012 4.18608 1.04419 4.74818C0.999978 5.28936 0.999988 5.95372 1 6.75868L1 17.2413C0.999987 18.0463 0.999978 18.7106 1.04419 19.2518C1.09012 19.8139 1.18868 20.3306 1.43597 20.816C1.81947 21.5686 2.43139 22.1805 3.18404 22.564C3.66937 22.8113 4.18608 22.9099 4.74817 22.9558C5.28936 23 5.95372 23 6.75867 23H17.2413C18.0463 23 18.7106 23 19.2518 22.9558C19.8139 22.9099 20.3306 22.8113 20.816 22.564C21.5686 22.1805 22.1805 21.5686 22.564 20.816C22.8113 20.3306 22.9099 19.8139 22.9558 19.2518C23 18.7106 23 18.0463 23 17.2413V6.7587ZM18 18H20.9982C20.9951 18.4455 20.9864 18.7954 20.9624 19.089C20.9266 19.5274 20.8617 19.7516 20.782 19.908C20.5903 20.2843 20.2843 20.5903 19.908 20.782C19.7516 20.8617 19.5274 20.9266 19.089 20.9624C18.7954 20.9864 18.4455 20.9951 18 20.9982V18ZM16 18H13V21H16V18ZM8 18H11V21H8V18ZM6 18H3.00176C3.00489 18.4455 3.01357 18.7954 3.03755 19.089C3.07337 19.5274 3.1383 19.7516 3.21799 19.908C3.40973 20.2843 3.71569 20.5903 4.09202 20.782C4.24842 20.8617 4.47262 20.9266 4.91104 20.9624C5.20463 20.9864 5.55447 20.9951 6 20.9982V18ZM20.9624 4.91104C20.9864 5.20463 20.9951 5.55447 20.9982 6H18V3.00176C18.4455 3.00489 18.7954 3.01357 19.089 3.03755C19.5274 3.07337 19.7516 3.1383 19.908 3.21799C20.2843 3.40974 20.5903 3.7157 20.782 4.09202C20.8617 4.24842 20.9266 4.47262 20.9624 4.91104ZM16 3V6H13V3L16 3ZM11 3V6H8V3L11 3ZM6 3.00176V6H3.00176C3.00489 5.55447 3.01357 5.20463 3.03755 4.91104C3.07337 4.47262 3.1383 4.24842 3.21799 4.09202C3.40973 3.7157 3.7157 3.40973 4.09202 3.21799C4.24842 3.1383 4.47262 3.07337 4.91104 3.03755C5.20463 3.01357 5.55447 3.00489 6 3.00176Z" fill="#801ED7"/>
</svg>
